svgs/light/envelopes-bulk.svg

<svg xmlns="http://www.w3.org/2000/svg" viewBox="0 0 640 512"><!-- Font Awesome Pro 6.0.0-alpha2 by @fontawesome - https://fontawesome.com License - https://fontawesome.com/license (Commercial License) --><path d="M80 160C88.836 160 96 152.836 96 144V64C96 46.326 110.326 32 128 32H384C401.674 32 416 46.326 416 64H448C448 28.652 419.346 0 384 0H128C92.654 0 64 28.652 64 64V144C64 152.836 71.164 160 80 160ZM576 96H256C220.654 96 192 124.652 192 160H224C224 142.326 238.326 128 256 128H576C593.674 128 608 142.326 608 160V352C608 369.672 593.674 384 576 384H432C423.164 384 416 391.162 416 400C416 408.836 423.164 416 432 416H576C611.346 416 640 387.346 640 352V160C640 124.652 611.346 96 576 96ZM560 256C568.875 256 576 248.875 576 240V176C576 167.125 568.875 160 560 160H496C487.125 160 480 167.125 480 176V240C480 248.875 487.125 256 496 256H560ZM512 192H544V224H512V192ZM320 192H64C28.654 192 0 220.652 0 256V448C0 483.346 28.654 512 64 512H320C355.346 512 384 483.346 384 448V256C384 220.652 355.346 192 320 192ZM352 448C352 465.672 337.674 480 320 480H64C46.326 480 32 465.672 32 448V313.625C44.75 323.25 64 339.25 128 384C140.75 393.625 166.375 416 192 416S243.25 393.625 256 384C320 339.25 339.25 323.25 352 313.625V448ZM352 275.25C326.375 294.375 329.625 294.375 236.75 361.625C227.25 364.75 208 384 192 384S156.75 364.75 147.25 358.375C54.375 291.25 57.625 291.25 32 272V256C32 238.326 46.326 224 64 224H320C337.674 224 352 238.326 352 256V275.25Z"/></svg>

<svg xmlns="http://www.w3.org/2000/svg" viewBox="0 0 640 512"><!--! Font Awesome Pro 6.3.0 by @fontawesome - https://fontawesome.com License - https://fontawesome.com/license (Commercial License) Copyright 2023 Fonticons, Inc. --><path d="M80 160C88.84 160 96 152.8 96 144V64c0-17.67 14.33-32 32-32h256c17.67 0 32 14.33 32 32h32c0-35.35-28.65-64-64-64H128C92.65 0 64 28.65 64 64v80C64 152.8 71.16 160 80 160zM576 96H256C220.7 96 192 124.7 192 160h32c0-17.67 14.33-32 32-32h320c17.67 0 32 14.33 32 32v192c0 17.67-14.33 32-32 32h-144c-8.836 0-16 7.162-16 16c0 8.836 7.164 16 16 16H576c35.35 0 64-28.65 64-64V160C640 124.7 611.3 96 576 96zM560 256C568.9 256 576 248.9 576 240v-64C576 167.1 568.9 160 560 160h-64C487.1 160 480 167.1 480 176v64C480 248.9 487.1 256 496 256H560zM512 192h32v32h-32V192zM320 192H64C28.65 192 0 220.7 0 256v192c0 35.35 28.65 64 64 64h256c35.35 0 64-28.65 64-64V256C384 220.7 355.3 192 320 192zM352 448c0 17.67-14.33 32-32 32H64c-17.67 0-32-14.33-32-32V313.6C44.75 323.3 64 339.3 128 384c12.75 9.625 38.38 32 64 32s51.25-22.38 64-32c64-44.75 83.25-60.75 96-70.38V448zM352 275.3c-25.62 19.12-22.38 19.12-115.3 86.38C227.3 364.8 208 384 192 384s-35.25-19.25-44.75-25.62C54.38 291.3 57.63 291.3 32 272V256c0-17.67 14.33-32 32-32h256c17.67 0 32 14.33 32 32V275.3z"/></svg>
